assets/images/illustrations/confetti.svg

<svg width="48" height="48" viewBox="0 0 48 48" fill="none" xmlns="http://www.w3.org/2000/svg">
<path d="M1.74584 43.8175C1.62712 43.8787 1.4997 43.7516 1.5607 43.6327L14.2099 18.9863L26.3486 31.1249L1.74584 43.8175Z" fill="white"/>
<path d="M1.82518 44.155C1.46069 44.2727 1.10598 43.9187 1.22291 43.554L1.2554 43.4752L14.12 18.4102L26.924 31.2142L1.90328 44.1219L1.82518 44.155ZM25.7738 31.0348L14.3006 19.5616L2.16006 43.2178L25.7738 31.0348Z" fill="#6B84FF"/>
<path d="M14.5566 18.8095C15.1439 18.2222 18.1682 20.2942 21.3115 23.4375C24.4548 26.5808 26.5268 29.605 25.9395 30.1924C25.3521 30.7797 22.3278 28.7077 19.1846 25.5644C16.0413 22.4211 13.9693 19.3969 14.5566 18.8095Z" fill="white"/>
<path d="M14.557 18.8107C13.9701 19.3984 16.0417 22.4221 19.1847 25.5651C22.3278 28.7082 25.352 30.7803 25.9397 30.1934C26.1363 29.9967 26.0328 29.528 25.6929 28.872C25.7081 28.8752 25.7178 28.8782 25.7204 28.877C25.7204 28.877 25.7148 28.8737 25.6917 28.8708C25.0158 27.5674 23.4015 25.5285 21.3114 23.4384C18.1682 20.2952 15.1444 18.2234 14.557 18.8107ZM14.1478 18.4015C14.4579 18.0646 14.8138 18.061 15.0275 18.0491C15.255 18.0455 15.4467 18.0745 15.6185 18.1054C15.9694 18.173 16.2766 18.2713 16.5732 18.379C18.8916 19.2832 20.7463 20.7176 22.4022 22.3475C23.4293 23.3765 24.403 24.4529 25.3112 25.6213C25.7653 26.209 26.2012 26.8126 26.6088 27.4888C26.8124 27.8305 27.0091 28.1821 27.1905 28.6152C27.2795 28.8346 27.3701 29.0726 27.436 29.4106C27.4657 29.5762 27.4974 29.785 27.4735 30.0728C27.4483 30.3586 27.3454 30.8179 26.9543 31.208C26.561 31.5957 26.1026 31.6934 25.8185 31.7141C25.5322 31.7334 25.3258 31.6978 25.1625 31.6641C24.8295 31.5901 24.5972 31.4911 24.3834 31.3948C23.9613 31.1988 23.6209 30.9884 23.2913 30.7713C22.6395 30.3369 22.062 29.8756 21.5007 29.3968C20.3854 28.4397 19.3663 27.4202 18.3975 26.3523C16.8632 24.6305 15.4105 22.8582 14.3196 20.7175C14.1882 20.4428 14.064 20.1584 13.9654 19.831C13.9189 19.6707 13.8726 19.4914 13.8573 19.2743C13.8513 19.0701 13.8282 18.7272 14.1478 18.4015Z" fill="#6B84FF"/>
<path d="M9.15351 28.9287C9.15351 28.9287 8.15524 31.6654 9.15351 35.085C10.1427 38.4732 11.5325 38.8892 11.5578 38.8965L8.49629 40.3564C8.48908 40.3511 7.4998 39.6173 6.83125 37.2031C6.16621 34.8015 6.95689 33.1203 6.9709 33.0908L9.15351 28.9287ZM13.4943 20.8066C13.4943 20.8066 11.9576 23.6917 13.4943 30.7334C14.6352 35.9609 16.0879 36.2302 16.7609 36.0225L13.0617 38.0039C13.0565 37.997 11.7268 36.244 11.0598 31.5098C10.3961 26.7991 11.3686 24.7998 11.382 24.7725L13.4943 20.8066Z" fill="#6B84FF"/>
<path d="M33.5406 24.4793C33.5956 24.696 33.4647 24.9164 33.248 24.9715C32.4134 25.1833 31.4786 25.1625 30.6429 25.0501C29.8038 24.9371 29.0344 24.7276 28.515 24.5384C28.305 24.4619 28.1964 24.2295 28.2726 24.0195C28.3492 23.8094 28.5823 23.7005 28.7924 23.777C29.2595 23.9472 29.9727 24.1428 30.7516 24.2476C31.534 24.3529 32.3535 24.363 33.0484 24.1866C33.2652 24.1316 33.4856 24.2625 33.5406 24.4793Z" fill="#6B84FF"/>
<path d="M17.4257 14.2107C17.4986 13.9993 17.7288 13.8872 17.9402 13.9601C18.1516 14.033 18.2637 14.2631 18.1908 14.4746C18.0684 14.8294 18.0079 15.016 18.0014 15.2027C17.9955 15.3713 18.0349 15.5745 18.207 15.9288C18.6497 16.8401 18.9395 17.9244 18.632 19.141C18.5771 19.3577 18.357 19.4888 18.1403 19.434C17.9236 19.3791 17.7924 19.159 17.8472 18.9423C18.0918 17.9744 17.8719 17.0919 17.4786 16.2823C17.275 15.8631 17.1802 15.524 17.1925 15.1742C17.2041 14.8426 17.314 14.5345 17.4257 14.2107Z" fill="#CD74FF"/>
<path d="M20.2957 11.8188C20.0105 12.104 19.5481 12.104 19.2629 11.8188C18.9776 11.5336 18.9776 11.0712 19.2629 10.786C19.5481 10.5007 20.0105 10.5007 20.2957 10.786C20.5809 11.0712 20.5809 11.5336 20.2957 11.8188Z" fill="#6B84FF"/>
<path d="M24.4217 22.7583C24.1365 23.0435 23.6741 23.0435 23.3888 22.7583C23.1036 22.4731 23.1036 22.0106 23.3888 21.7254C23.6741 21.4402 24.1365 21.4402 24.4217 21.7254C24.7069 22.0106 24.7069 22.4731 24.4217 22.7583Z" fill="#FFA900"/>
<path d="M9.2493 6.27567C8.91722 6.88764 8.81147 7.58129 8.9826 8.1549C9.15225 8.73147 9.58514 9.14071 10.1584 9.34205C10.341 9.39838 10.5137 9.45688 10.6917 9.52618C13.8823 10.6042 16.1492 14.7646 15.4028 19.0075C15.3615 19.2417 15.31 19.4756 15.2493 19.7062C15.379 19.506 15.502 19.2966 15.6164 19.0813C17.6685 15.2804 17.2705 9.38682 13.0123 5.90875C12.7834 5.71724 12.5594 5.54092 12.3169 5.36623C11.8357 4.99517 11.2563 4.85599 10.6803 5.02784C10.106 5.19689 9.58154 5.66364 9.2493 6.27567Z" fill="#00AC47"/>
<path d="M37.7747 15.1277C37.2762 15.6261 36.468 15.6261 35.9695 15.1277C35.471 14.6292 35.471 13.821 35.9695 13.3225C36.468 12.824 37.2762 12.824 37.7747 13.3225C38.2731 13.821 38.2731 14.6292 37.7747 15.1277Z" fill="#00AC47"/>
<path d="M36.3401 26.2488C35.8416 26.7472 35.0334 26.7472 34.5349 26.2488C34.0364 25.7503 34.0364 24.9421 34.5349 24.4436C35.0334 23.9451 35.8416 23.9451 36.3401 24.4436C36.8386 24.9421 36.8386 25.7503 36.3401 26.2488Z" fill="#2D8CFF"/>
<path d="M28.1274 13.5531C27.721 13.9595 27.0622 13.9595 26.6558 13.5531C26.2494 13.1468 26.2494 12.4879 26.6558 12.0815C27.0622 11.6751 27.721 11.6751 28.1274 12.0815C28.5338 12.4879 28.5338 13.1468 28.1274 13.5531Z" fill="#FF5500"/>
<path d="M25.4163 17.9591C25.3419 17.6464 25.0227 17.4439 24.6941 17.4947L24.6623 17.5004C24.3 17.5744 24.0875 17.812 23.9951 18.046C23.9164 18.2454 23.9204 18.4421 23.9445 18.5759C24.0429 19.1388 24.0218 19.4633 23.9728 19.6365C23.95 19.717 23.925 19.7509 23.9158 19.7616C23.9086 19.7699 23.9037 19.7732 23.8939 19.7771C23.8583 19.791 23.7608 19.8075 23.5584 19.7737C23.3656 19.7415 23.1606 19.6796 22.9317 19.6105L22.9217 19.6075C22.6682 19.531 22.4297 19.4838 22.2108 19.4856C21.9844 19.4873 21.736 19.5429 21.5343 19.7147C21.3374 19.8824 21.2679 20.0913 21.2408 20.2343C21.2149 20.3706 21.2177 20.506 21.2184 20.5725C21.2198 20.7126 21.2038 21.2355 21.0425 21.6115C20.9625 21.7978 20.8868 21.8533 20.8593 21.8658C20.8504 21.8699 20.8301 21.878 20.7819 21.8742C20.7284 21.87 20.6332 21.8503 20.4885 21.7812C19.8246 21.4642 19.2034 21.3206 18.7083 21.546C18.1646 21.7935 18.0906 22.3134 18.1207 22.6055C18.1647 23.1245 18.1029 23.4287 18.0275 23.5959C17.9611 23.7434 17.8854 23.7868 17.8252 23.8078C17.7429 23.8364 17.6115 23.8458 17.4288 23.8086L18.4294 24.8655C18.7567 24.7105 19.0209 24.4458 19.1879 24.0751C19.3597 23.6936 19.4219 23.2172 19.3866 22.6476C19.5044 22.6718 19.6814 22.7286 19.9309 22.8476C20.4403 23.0908 20.956 23.1534 21.4151 22.9443C21.8445 22.7487 22.0797 22.3781 22.2111 22.072C22.4222 21.5802 22.4678 21.0111 22.4768 20.725C22.4999 20.7312 22.5245 20.7382 22.5508 20.7461C22.7616 20.8098 23.0565 20.9015 23.3526 20.9509C23.6419 20.9992 24.025 21.0248 24.3884 20.8816C24.7935 20.722 25.0663 20.3973 25.1908 19.9575C25.2978 19.5795 25.2994 19.1092 25.2124 18.5417C25.3833 18.4038 25.4695 18.1827 25.4163 17.9591Z" fill="#FF5500"/>
<path d="M45.452 21.1391C45.0404 21.7007 44.4583 22.0925 43.8665 22.1826C43.2727 22.2754 42.7178 22.0586 42.291 21.6262C42.1621 21.4851 42.0354 21.354 41.8968 21.2226C39.5598 18.7977 34.8297 18.5241 31.3117 21.0106C31.1175 21.1479 30.928 21.2943 30.7454 21.4477C30.8711 21.2449 31.0079 21.0443 31.1537 20.8489C33.7147 17.3704 39.214 15.2141 44.1771 17.5796C44.4481 17.7049 44.7031 17.8321 44.9646 17.9769C45.5056 18.2536 45.8789 18.7181 45.9694 19.3123C46.0617 19.9038 45.8636 20.5774 45.452 21.1391Z" fill="#FFA900"/>
<path d="M38.3258 22.1694C38.2184 22.3159 38.0626 22.4163 37.8991 22.4413C37.7354 22.4667 37.5767 22.4145 37.4526 22.3038C37.3812 22.2386 37.3111 22.1788 37.2352 22.1189C35.9181 21.0086 33.6712 21.1061 32.1404 22.3415C32.0554 22.4101 31.9722 22.4825 31.8933 22.5577C31.9564 22.4689 32.0248 22.3814 32.0964 22.2968C33.363 20.7874 35.8225 20.0193 37.8647 21.1132C37.9772 21.1715 38.0832 21.2299 38.1913 21.2962C38.3343 21.3812 38.4314 21.5171 38.4565 21.6809C38.4819 21.8444 38.4331 22.0229 38.3258 22.1694Z" fill="#FF5500"/>
<path d="M23.6867 4.27236C23.5596 4.40213 23.4859 4.57221 23.4878 4.73763C23.4895 4.90329 23.5668 5.05139 23.6962 5.15576C23.7722 5.21567 23.8426 5.27503 23.914 5.3402C25.2241 6.45889 25.4936 8.69171 24.524 10.4032C24.4701 10.4982 24.4123 10.5922 24.3509 10.6823C24.4283 10.6055 24.5034 10.5238 24.5753 10.4393C25.8583 8.94394 26.2157 6.39215 24.8038 4.55536C24.7281 4.45384 24.6531 4.35879 24.5701 4.26287C24.463 4.13565 24.3131 4.06197 24.1473 4.0639C23.9819 4.06545 23.8138 4.14259 23.6867 4.27236Z" fill="#FF5500"/>
<path d="M27.4666 19.0126L27.3956 20.0093C27.3925 20.0534 27.3732 20.0948 27.3414 20.1255L26.6719 20.7732C26.5746 20.8673 26.6127 21.0312 26.7416 21.0728L27.4126 21.2892C27.4612 21.3049 27.5008 21.3405 27.5215 21.3872L27.9422 22.337C28.0004 22.4683 28.1816 22.4814 28.258 22.3599L28.7184 21.6282C28.7487 21.58 28.8001 21.549 28.8569 21.5448L29.7413 21.479C29.8774 21.4689 29.9528 21.3164 29.8782 21.2021L29.4917 20.6101C29.4678 20.5734 29.4581 20.5292 29.4645 20.4859L29.6527 19.2114C29.6733 19.0716 29.5317 18.964 29.4025 19.0213L28.6129 19.3714C28.5557 19.3968 28.4896 19.3905 28.4382 19.355L27.7475 18.8777C27.6333 18.7988 27.4765 18.874 27.4666 19.0126Z" fill="#2D8CFF"/>
<path d="M29.924 14.1813L29.8913 14.6673C29.8884 14.7098 29.8705 14.7499 29.8408 14.7804L29.5246 15.1048C29.4327 15.1992 29.4704 15.3571 29.595 15.3997L29.8695 15.4936C29.918 15.5102 29.9572 15.5468 29.9769 15.5942L30.162 16.0373C30.2189 16.1734 30.4065 16.1866 30.4818 16.0597L30.665 15.7509C30.6947 15.7008 30.747 15.6682 30.8051 15.6637L31.1866 15.6335C31.3203 15.623 31.3955 15.4749 31.3253 15.3607L31.159 15.0906C31.1371 15.0551 31.1283 15.0131 31.1341 14.9718L31.2269 14.3047C31.2466 14.1637 31.1019 14.0571 30.973 14.1177L30.6614 14.2642C30.602 14.2922 30.532 14.2854 30.479 14.2466L30.2089 14.0486C30.0949 13.965 29.9334 14.0402 29.924 14.1813Z" fill="#FFFA32"/>
<path d="M39.4188 33.6696C38.8633 34.0894 38.1933 34.2976 37.6005 34.2142C37.0051 34.1326 36.5357 33.7657 36.251 33.229C36.168 33.0568 36.0843 32.8948 35.9892 32.7292C34.4465 29.7355 29.994 28.1158 25.9103 29.488C25.685 29.5638 25.4613 29.6497 25.2424 29.7442C25.421 29.586 25.6097 29.4331 25.8054 29.2878C29.257 26.6907 35.1438 26.2035 39.2192 29.894C39.4428 30.0918 39.6506 30.2869 39.8596 30.5006C40.2984 30.9209 40.5226 31.473 40.4387 32.0682C40.3574 32.6613 39.9743 33.2496 39.4188 33.6696Z" fill="#6B84FF"/>
<path d="M24.2228 23.2567C25.0896 23.1 25.8119 23.203 26.3106 23.4917C26.8174 23.7851 27.0931 24.2773 26.9967 24.8285C26.9715 24.9724 26.8344 25.0687 26.6905 25.0436C26.5466 25.0184 26.4503 24.8813 26.4755 24.7374C26.527 24.4426 26.3959 24.1523 26.0456 23.9496C25.6874 23.7422 25.1024 23.6354 24.3169 23.7774C22.9923 24.0168 22.4657 24.5573 22.3197 25.0466C22.4604 25.0102 22.6028 25.0063 22.744 25.0333C23.0968 25.1007 23.3767 25.3507 23.5576 25.6134C23.7368 25.8737 23.8563 26.2012 23.8334 26.4841C23.8216 26.6299 23.7686 26.7905 23.6339 26.9058C23.4967 27.0233 23.3193 27.0559 23.1388 27.0347C22.57 26.9679 22.0842 26.5361 21.8668 25.9857C21.7983 26.0443 21.7285 26.118 21.6778 26.1987C21.5989 26.3244 21.5841 26.4326 21.6366 26.5377C21.6462 26.5568 21.6532 26.5764 21.6578 26.5964C21.6848 26.7128 21.63 26.8367 21.5184 26.8925C21.3877 26.9579 21.2287 26.9048 21.1634 26.7741C21.0427 26.5327 21.061 26.2999 21.1353 26.1053C21.1612 26.0376 21.1938 25.9745 21.2298 25.9173C21.3554 25.7172 21.5352 25.5616 21.6752 25.4685C21.6985 25.4427 21.722 25.418 21.7458 25.3944C21.745 25.3636 21.7449 25.3327 21.7459 25.3018C21.7762 24.4044 22.519 23.5646 24.2228 23.2567ZM22.6447 25.5529C22.553 25.5354 22.4382 25.5431 22.3049 25.6212C22.4139 26.0888 22.7988 26.4619 23.2006 26.5091C23.2609 26.5162 23.2844 26.5066 23.2899 26.5035C23.2929 26.4996 23.3026 26.4836 23.306 26.4413C23.3159 26.3192 23.2582 26.1117 23.1218 25.9134C22.9869 25.7174 22.8127 25.585 22.6447 25.5529Z" fill="#FFFA32"/>
<path d="M20.0093 13.7043L20.9109 14.6501C20.9374 14.6779 20.9522 14.7148 20.9522 14.7532L20.911 16.5681C20.9044 16.8596 21.2298 17.0368 21.4711 16.873L22.6742 16.0564C22.7734 15.9891 22.8996 15.9757 23.0107 16.0208L24.0797 16.4551C24.3224 16.5536 24.5854 16.3673 24.573 16.1056L24.4908 14.3808C24.4875 14.3117 24.5043 14.243 24.5391 14.1832L25.4352 12.6448C25.5723 12.4095 25.4074 12.1132 25.1351 12.1057L23.7594 12.0679C23.643 12.0647 23.5354 12.0052 23.4708 11.9084L22.7589 10.8413C22.598 10.6001 22.2321 10.6396 22.1265 10.9097L21.5221 12.4548C21.4858 12.5478 21.4123 12.6214 21.3194 12.658L20.1376 13.123C19.9006 13.2163 19.8336 13.5199 20.0093 13.7043Z" fill="#FFFA32"/>
</svg>

<svg xmlns="http://www.w3.org/2000/svg" width="48" height="48" fill="none" viewBox="0 0 48 48"><path fill="#fff" d="M1.746 43.818a.137.137 0 0 1-.185-.185L14.21 18.986l12.139 12.139z"/><path fill="#6b84ff" d="M1.825 44.155a.482.482 0 0 1-.602-.601l.032-.079L14.12 18.41l12.804 12.804-25.02 12.908zm23.949-13.12L14.3 19.562 2.16 43.218z"/><path fill="#fff" d="M14.557 18.81c.587-.588 3.611 1.484 6.754 4.628 3.144 3.143 5.216 6.167 4.628 6.754-.587.588-3.611-1.484-6.754-4.628-3.144-3.143-5.216-6.167-4.628-6.754"/><path fill="#6b84ff" d="M14.557 18.81c-.587.588 1.485 3.612 4.628 6.755s6.167 5.215 6.755 4.628c.196-.196.093-.665-.247-1.321q.023.006.027.005s-.005-.003-.028-.006c-.676-1.304-2.29-3.342-4.38-5.433-3.144-3.143-6.168-5.215-6.755-4.627m-.41-.409c.31-.336.667-.34.88-.352.228-.003.42.026.591.056.351.068.659.166.955.274 2.319.904 4.173 2.339 5.83 3.968 1.026 1.03 2 2.106 2.908 3.274.454.588.89 1.192 1.298 1.868.203.341.4.693.581 1.126.09.22.18.458.246.796.03.165.061.374.038.662a1.8 1.8 0 0 1-.52 1.135 1.8 1.8 0 0 1-1.136.506 2.3 2.3 0 0 1-.655-.05 3.8 3.8 0 0 1-.78-.27 8 8 0 0 1-1.092-.623 19 19 0 0 1-1.79-1.374 35 35 0 0 1-3.104-3.045c-1.534-1.721-2.986-3.494-4.077-5.634a6 6 0 0 1-.355-.887 2.6 2.6 0 0 1-.108-.557c-.006-.204-.029-.547.29-.873M9.154 28.929s-.999 2.736 0 6.156c.989 3.388 2.379 3.804 2.404 3.812l-3.062 1.46c-.007-.006-.996-.74-1.665-3.154-.665-2.402.126-4.083.14-4.112zm4.34-8.122s-1.536 2.885 0 9.926c1.141 5.228 2.594 5.497 3.267 5.29l-3.7 1.98c-.005-.006-1.334-1.759-2.001-6.493-.664-4.71.309-6.71.322-6.738zM33.54 24.48a.405.405 0 0 1-.292.491c-.835.212-1.77.192-2.605.08a10.7 10.7 0 0 1-2.128-.513.405.405 0 0 1 .277-.761c.467.17 1.18.366 1.96.47.782.106 1.601.116 2.296-.06a.405.405 0 0 1 .493.292"/><path fill="#cd74ff" d="M17.426 14.21a.405.405 0 1 1 .765.265c-.123.354-.183.541-.19.728-.006.168.034.372.206.726.443.911.732 1.995.425 3.212a.405.405 0 0 1-.785-.199c.245-.968.025-1.85-.368-2.66-.204-.419-.299-.758-.287-1.108.012-.331.122-.64.234-.963"/><path fill="#6b84ff" d="M20.296 11.819a.73.73 0 1 1-1.033-1.033.73.73 0 0 1 1.033 1.033"/><path fill="#ffa900" d="M24.422 22.758a.73.73 0 1 1-1.033-1.033.73.73 0 0 1 1.033 1.033"/><path fill="#00ac47" d="M9.25 6.276c-.333.612-.439 1.305-.267 1.879.17.576.602.986 1.175 1.187.183.056.356.115.534.184 3.19 1.078 5.457 5.239 4.71 9.482a9 9 0 0 1-.153.698q.196-.301.367-.625c2.053-3.8 1.654-9.694-2.604-13.172a12 12 0 0 0-.695-.543c-.481-.37-1.06-.51-1.637-.338-.574.169-1.098.636-1.43 1.248M37.775 15.128a1.277 1.277 0 1 1-1.806-1.806 1.277 1.277 0 0 1 1.806 1.806"/><path fill="#2d8cff" d="M36.34 26.249a1.277 1.277 0 1 1-1.805-1.806 1.277 1.277 0 0 1 1.805 1.806"/><path fill="#f50" d="M28.127 13.553a1.04 1.04 0 1 1-1.471-1.471 1.04 1.04 0 0 1 1.471 1.471M25.416 17.96a.637.637 0 0 0-.722-.465l-.032.005a.89.89 0 0 0-.667.546 1 1 0 0 0-.05.53c.098.563.077.887.028 1.06a.3.3 0 0 1-.057.126.1.1 0 0 1-.022.015c-.036.014-.133.03-.336-.003-.192-.033-.397-.094-.626-.164l-.01-.002a2.4 2.4 0 0 0-.711-.122 1.04 1.04 0 0 0-.677.229.9.9 0 0 0-.293.52c-.026.136-.023.271-.023.338.002.14-.014.662-.175 1.038-.08.187-.156.242-.184.255-.009.004-.029.012-.077.008a.9.9 0 0 1-.294-.093c-.663-.317-1.285-.46-1.78-.235-.543.248-.617.767-.587 1.06.044.518-.018.823-.093.99-.067.147-.143.19-.203.212-.082.028-.213.038-.396 0l1 1.058c.328-.155.592-.42.759-.79.172-.382.234-.859.199-1.428.117.024.294.08.544.2.51.243 1.025.305 1.484.096.43-.195.665-.566.796-.872.211-.492.257-1.06.266-1.347l.074.021c.21.064.506.155.802.205.289.048.672.074 1.035-.07.406-.159.678-.484.803-.924.107-.378.108-.848.021-1.415a.57.57 0 0 0 .204-.583"/><path fill="#ffa900" d="M45.452 21.14c-.412.56-.994.953-1.585 1.043-.594.092-1.15-.124-1.576-.557a8 8 0 0 0-.394-.403c-2.337-2.425-7.067-2.699-10.585-.212a9 9 0 0 0-.567.437q.19-.305.409-.6c2.56-3.478 8.06-5.634 13.023-3.268.271.125.526.252.788.397.54.277.914.741 1.004 1.335.093.592-.105 1.265-.517 1.827"/><path fill="#f50" d="M38.326 22.17a.67.67 0 0 1-.427.271.54.54 0 0 1-.446-.137 4 4 0 0 0-.218-.185c-1.317-1.11-3.564-1.013-5.095.223a4 4 0 0 0-.247.216q.096-.135.203-.261c1.267-1.51 3.727-2.278 5.769-1.184.112.059.218.117.326.183a.54.54 0 0 1 .265.385.67.67 0 0 1-.13.488M23.687 4.272c-.127.13-.201.3-.2.466a.54.54 0 0 0 .21.418q.111.088.217.184c1.31 1.119 1.58 3.352.61 5.063a4 4 0 0 1-.173.28q.116-.117.224-.244c1.283-1.495 1.64-4.047.229-5.884a5 5 0 0 0-.234-.292.54.54 0 0 0-.423-.2.67.67 0 0 0-.46.21"/><path fill="#2d8cff" d="m27.467 19.013-.071.996a.18.18 0 0 1-.055.116l-.67.648a.18.18 0 0 0 .07.3l.672.216a.18.18 0 0 1 .108.098l.421.95a.18.18 0 0 0 .316.023l.46-.732a.18.18 0 0 1 .139-.083l.884-.066a.18.18 0 0 0 .137-.277l-.386-.592a.18.18 0 0 1-.027-.124l.188-1.275a.18.18 0 0 0-.25-.19l-.79.35a.18.18 0 0 1-.175-.016l-.69-.477a.18.18 0 0 0-.281.135"/><path fill="#fffa32" d="m29.924 14.181-.033.486a.18.18 0 0 1-.05.113l-.316.325a.18.18 0 0 0 .07.295l.274.094a.18.18 0 0 1 .108.1l.185.443a.18.18 0 0 0 .32.023l.183-.31a.18.18 0 0 1 .14-.086l.382-.03a.18.18 0 0 0 .138-.273l-.166-.27a.18.18 0 0 1-.025-.12l.093-.666a.18.18 0 0 0-.254-.187l-.312.146a.18.18 0 0 1-.182-.017l-.27-.198a.18.18 0 0 0-.285.132"/><path fill="#6b84ff" d="M39.419 33.67c-.556.42-1.226.628-1.819.544-.595-.081-1.064-.448-1.349-.985a8 8 0 0 0-.262-.5c-1.542-2.994-5.995-4.613-10.079-3.241a9 9 0 0 0-.668.256q.27-.237.563-.456c3.452-2.597 9.339-3.085 13.414.606.224.198.432.393.64.607.44.42.664.972.58 1.567-.082.593-.465 1.182-1.02 1.602"/><path fill="#fffa32" d="M24.223 23.257c.867-.157 1.589-.054 2.088.235.506.293.782.785.686 1.336a.265.265 0 0 1-.521-.09c.051-.295-.08-.586-.43-.788-.359-.208-.944-.315-1.73-.173-1.324.24-1.85.78-1.996 1.27a1 1 0 0 1 .424-.014c.353.068.633.318.814.58.179.26.298.588.275.871a.6.6 0 0 1-.2.422.63.63 0 0 1-.494.129c-.569-.067-1.055-.499-1.272-1.05a1 1 0 0 0-.19.214c-.078.125-.093.234-.04.339a.264.264 0 1 1-.473.236.8.8 0 0 1-.029-.669q.04-.1.095-.188c.125-.2.305-.355.445-.449l.07-.074v-.092c.031-.898.774-1.737 2.478-2.045m-1.578 2.296a.48.48 0 0 0-.34.068c.109.468.494.84.896.888.06.007.083-.002.089-.006.003-.003.013-.02.016-.062.01-.122-.048-.33-.184-.528-.135-.196-.31-.328-.477-.36M20.01 13.704l.9.946a.15.15 0 0 1 .042.103l-.041 1.815a.359.359 0 0 0 .56.305l1.203-.817c.1-.067.226-.08.337-.035l1.069.434a.36.36 0 0 0 .493-.35l-.082-1.724a.36.36 0 0 1 .048-.198l.896-1.538a.36.36 0 0 0-.3-.54l-1.376-.037a.36.36 0 0 1-.288-.16l-.712-1.067a.359.359 0 0 0-.633.069l-.604 1.545a.36.36 0 0 1-.203.203l-1.181.465a.36.36 0 0 0-.129.581"/></svg>
